!!!!SEGMENT: pl-wtm--r-1370_stefani-jozef--polka.krn
!!!cenid: 18xx:2411
!!!COM: Stefani, Józef
!!!COM-rismid: pe30024097
!!!CDT: 1800/04/16-1876/03/19
!!!CNT: Polish
!!!OTL: Polka
!!!PDT:
!!!AGN: Secular; Polka
!!!SMS-siglum: PL-Wtm
!!!SMS-shelfmark: R 1370
!!!SMS-shelfwork: W
!!!SMS-variant:
!!!SMS-altvar:
!!!NIFC-rismid: 1001117216
!!!URL-scan: http://repozytorium.nifc.pl/skany/pl-wtm-nut--r1370
!!!ONB-nifc:
!!!key:
**kern	**kern	**dynam
*part2	*part1	*part1
*staff2	*staff1	*
*Iempty	*Iforte	*
*	*I"fortepian	*
*clefF4	*clefG2	*
*k[f#c#]	*k[f#c#]	*
*D:	*D:	*
*M2/4	*M2/4	*
=1	=1	=1
*>A	*>A	*
*all\right	*all\right	*
4.A\	4.a/	f
16A\LL	16a/LL	.
16A\JJ	16a/JJ	.
*Xrep	*Xrep	*
=2	=2	=2
*rep	*rep	*
4.A\	4.a/	.
16A\LL	16a/LL	.
16A\JJ	16a/JJ	.
*Xrep	*Xrep	*
=3	=3	=3
*rep	*rep	*
4.A\	4.a/	.
16A\LL	16a/LL	.
16A\JJ	16a/JJ	.
*Xrep	*Xrep	*
=4	=4	=4
*rep	*rep	*
4.A\	4.a/	.
16A\LL	16a/LL	.
16A\JJ	16a/JJ	.
*Xrep	*Xrep	*
=5	=5	=5
*^	*	*
!	!LO:TX:t=P:problem=mixed beam	!	!
8A/	8A\L	8a/L	.
8r	16AA/L	16A/L	.
.	16BB/JJ	16B/JJ	.
4r	16C#/LL	16c#/LL	.
.	16BB/	16B/	.
.	16C#/	16c#/	.
.	16D/JJ	16d/JJ	.
=6	=6	=6	=6
2re	16E\LL	16e/LL	.
.	16F#t\m	16f#/	.
.	16G\	16g/	.
.	16A\JJ	16a/JJ	.
.	16B\LL	16b\LL	.
.	16c#\	16cc#\	.
.	16d\	16dd\	.
.	16e\JJ	16ee\JJ	.
*v	*v	*	*
=7!|:	=7!|:	=7!|:
*>B	*>B	*
8D\L	8ff#\L 8dd\	.
8A\J 8F#\	16ff#\L 16dd\	.
.	16ff#\JJ 16dd\	.
*rep	*	*
8D\L	8ff#\L 8dd\	.
8A\J 8F#\	8ee\J 8a\	.
*Xrep	*	*
!!LO:LB:g=original
=8	=8	=8
8D\L	8ff#\L 8dd\	.
8A\J 8F#\	16ff#\L 16dd\	.
.	16ff#\JJ 16dd\	.
*rep	*	*
8D\L	8ff#\L 8dd\	.
8A\J 8F#\	8ee\J 8a\	.
*Xrep	*	*
=9	=9	=9
8D\L	8ff#\L 8dd\	.
8A\J 8F#\	8ee\ 8a\	.
8D\L	8ff#\ 8dd\	.
8A\J 8F#\	8gg\J 8ee\	.
*Xrep	*	*
=10	=10	=10
*rep	*	*
8D\L	(16bb\LL 16gg\	.
.	16aa\JJ 16ff#\)	.
.	8qbb/ 8qgg/	.
8A\J 8F#\	16aa\LL 16ff#\	.
.	16gg#X\JJ 16ee#X\	.
8D\L	4aa\ 4ff#\	.
8A\J 8F#\	.	.
*Xrep	*	*
=11	=11	=11
.	(8qff#/ 8qdd#X/	.
8AA\L	8gg\L 8ee\)	.
.	(8qff#/ 8qdd#/	.
8A\J 8E\ 8C#\	8gg\J 8ee\)	.
*rep	*	*
8AA\L	16ee\LL 16cc#'\	.
.	16ff#\J 16ddn'\	.
8A\J 8E\ 8C#\	8gg\J 8ee'\	.
*Xrep	*	*
=12	=12	=12
.	(8qgg#X/ 8qee#X/	.
8D\L	8aa\L 8ff#\)	.
.	(8qgg#/ 8qee#/	.
8A\J 8F#\	8aa\J 8ff#\)	.
*rep	*	*
8D\L	16ff#\LL 16dd'\	.
.	16aa\J 16ff#'\	.
8A\J 8F#\	8ddd\J 8ff#'\	.
*Xrep	*	*
=13	=13	=13
!LO:TX:t=1ma	!	!
*>B1	*B1	*
8E\L	16ccc#\LL	.
.	16bb\	.
8c#\J 8A\	16aa\	.
.	16ccc#\JJ	.
8E\L	16bb\LL	.
.	16aa\	.
8d\J 8B\	16gg#X\	.
.	16bb\JJ	.
!!LO:LB:g=original
=14	=14	=14
*tremolo	*	*
8c#\L 8A\	(16bb\LL	.
.	16aa\JJ)	.
.	(8qbb/	.
8c#\ 8A\	16aa\LL)	.
.	16gg#X'\JJ	.
8c#\J 8A\	8aa'\L	.
*Xtremolo	*	*
8r	16gg#\L	.
.	16ggn\JJ	.
=15:|!	=15:|!	=15:|!
*>C	*>C	*
*^	*	*
!	!	!	!LO:DY:rj
4G/	8G\L	16eee\LL	ff
.	.	16bb\	.
.	8e\J 8B\	16aa#X\	.
.	.	16bb\JJ	.
4A/	8A\L	16ccc#\LL	.
.	.	16aan\	.
.	8g\J 8e\	16bb\	.
.	.	16ccc#\JJ	.
*v	*v	*	*
=16	=16	=16
*tremolo	*	*
8f#\L 8d\	(16eee\LL	.
.	16ddd\)	.
8f#\ 8d\	16aa\	.
.	16ff#\JJ	.
8f#\J 8d\	8dd\	.
*Xtremolo	*	*
8r	8r	.
=17	=17	=17
*^	*	*
!	!LO:TX:t=P:problem=nuty poprawiane	!	!
!	!LO:N:vis=2	!	!
2AA/	8AA\L	16bb\LL 16gg\ 16cc#\	.
.	.	16bb\JJ 16gg\ 16cc#\	.
.	8G\ 8E\ 8C#\	4a/	.
.	8G\ 8E\ 8C#\	.	.
.	8G\J 8E\ 8C#\	8bb\ 8gg\ 8cc#\	.
=18	=18	=18	=18
!	!LO:N:vis=2	!	!
2AA/	8AA\L	16aa\LL 16ff#\ 16dd\	.
.	.	16aa\JJ 16ff#\ 16dd\	.
.	8A\ 8F#\ 8D\	4a/	.
.	8A\ 8F#\ 8D\	.	.
.	8A\J 8F#\ 8D\	8aa\ 8ff#\ 8dd\	.
!!LO:LB:g=original
=19	=19	=19	=19
!	!LO:N:vis=2	!	!
2AA/	8AA\L	16gg\LL 16ee\	.
.	.	16a\	.
.	8A\ 8E\ 8C#\	16g#X\	.
.	.	16a\JJ	.
.	8A\ 8E\ 8C#\	16b/LL	.
.	.	16a/	.
.	8A\J 8E\ 8C#\	16cc#/	.
.	.	16a/JJ	.
*v	*v	*	*
=20	=20	=20
8D/ 8DD/	(16ee\LL	.
.	16dd\)	.
8A\L 8F#\ 8D\	16cc#\	.
.	16b\JJ	.
8A\ 8F#\ 8D\	16a\LL	.
.	16dd\	.
8A\J 8F#\ 8D\	16ff#\	.
.	16aa\JJ	.
=21	=21	=21
8AA/ 8AAA/	16bb\LL 16gg\ 16cc#\	.
.	16bb\JJ 16gg\ 16cc#\	.
8A\L 8E\ 8AA\	4a/	.
8A\ 8E\ 8AA\	.	.
8A\J 8E\ 8AA\	8bb\ 8gg\ 8cc#\	.
=22	=22	=22
8D/ 8DD/	16aa\LL 16ff#\ 16dd\	.
.	16aa\JJ 16ff#\ 16dd\	.
8A\L 8F#\ 8D\	4a/	.
8A\ 8F#\ 8D\	.	.
8A\J 8F#\ 8D\	8aa\ 8ff#\ 8dd\	.
=23	=23	=23
8E/ 8EE/	16gg#X\LL	.
.	16ee\	.
!LO:SIC:v:n=3:s=8G#\	!	!
8d\L 8B\ 8G\ 8E\	16dd#X\	.
.	16ee\JJ	.
8d\ 8B\ 8E\	16ff#\LL	.
.	16ee\	.
8d\J 8B\ 8E\	16gg#\	.
.	16ee\JJ	.
=24	=24	=24
*tremolo	*	*
8c#\L 8A\	16bb\LL	.
.	16aa\	.
8c#\ 8A\	16ggn\	.
.	16ee\JJ	.
8c#\J 8A\	16a\LL	.
.	16aa\	.
*Xtremolo	*	*
8r	16gg#X\	.
.	16ggn\JJ	.
!!LO:LB:g=original
=25	=25	=25
!	!LO:TX:t=P:problem=prawdopodobnie tu powinien być jakiś wklejony fragment, ale nie potrawię rozszyfrować który i ile taktów	!
!	!LO:TX:a:t=16.	!
2ryy	2ryy	.
=26	=26	=26
!	!	!LO:DY:rj
4A\ 4E\ 4C#\ 4AA\	4aa\ 4ee\ 4cc#\	ff
4A\ 4E\ 4C#\ 4AA\	4ccc#\ 4aa\ 4ee\	.
=27	=27	=27
8A\L 8E\ 8C#\ 8AA\	8ee\L 8cc#\ 8a\	.
16A\L 16E\ 16C#\ 16AA\	16ee\L	.
16A\JJ 16E\ 16C#\ 16AA\	16ee\JJ	.
8A\ 8E\ 8C#\ 8AA\	8ee\L	.
8r	16aa\L	.
.	16ccc#\JJ	.
=28	=28	=28
8A\ 8E\ 8C#\ 8AA\	8eee\L 8ee\	.
8r	16ccc#\L	.
.	16aa\JJ	.
*	*rep	*
8A\ 8E\ 8C#\ 8AA\	8eee\L 8ee\	.
8r	16ccc#\L	.
.	16aa\JJ	.
*	*Xrep	*
=29	=29	=29
8B\L 8G#X\ 8E\	8ee\L	.
16B\L 16G#\ 16E\	16eee\L 16bb\ 16gg#X\ 16ee\	.
16B\JJ 16G#\ 16E\	16eee\JJ 16bb\ 16gg#\ 16ee\	.
8B\ 8G#\ 8E\	8eee\ 8ee\	.
8r	8e/	.
=30!|:	=30!|:	=30!|:
*>D	*>D	*
*^	*	*
!	!LO:N:vis=2	!	!
2AA/	8AA\L	8e/L	.
.	8A\ 8E\ 8C#\	8a/	.
.	8A\ 8E\ 8C#\	8b/	.
.	8A\J 8E\ 8C#\	8cc#/J	.
!!LO:LB:g=original
=31	=31	=31	=31
!	!LO:N:vis=2	!	!
2AA/	8AA\L	8b/L	.
.	8A\ 8E\ 8C#\	16a/L	.
.	.	16cc#/JJ	.
.	8A\ 8E\ 8C#\	4ee\ 4e^<\	.
.	8A\J 8E\ 8C#\	.	.
=32:|!	=32:|!	=32:|!	=32:|!
*>E	*>E	*	*
*rep	*rep	*	*
!	!LO:N:vis=2	!	!
2AA/	8AA\L	8e/L	.
.	8A\ 8E\ 8C#\	(16f#/L	.
.	.	16g#X/JJ	.
.	8A\ 8E\ 8C#\	16a/LL	.
.	.	16g#/	.
.	8A\J 8E\ 8C#\	16a/	.
.	.	16b/JJ)	.
*Xrep	*Xrep	*	*
=33	=33	=33	=33
*rep	*rep	*	*
!	!LO:N:vis=2	!	!
2AA/	8AA\L	8cc#\L 8a\	.
.	8A\ 8E\ 8C#\	8dd\ 8b\	.
.	8A\ 8E\ 8C#\	8ee\ 8cc#\	.
.	8A\J 8E\ 8C#\	8ff#\J 8dd\	.
*Xrep	*Xrep	*	*
*v	*v	*	*
=34	=34	=34
8B\L 8E\	8ee\L	.
16d\L 16B\ 16E\	16dd\L 16g#X\	.
16d\JJ 16B\ 16E\	16dd\JJ 16g#\	.
8d\L 8B\ 8E\	8dd\L 8g#\	.
16d\L 16B\ 16E\	16b\L 16g#\	.
16d\JJ 16B\ 16E\	16b\JJ 16g#\	.
=35	=35	=35
*rep	*	*
8B\L 8E\	8b/L 8g#X/	.
16d\L 16B\ 16E\	16g#X/L 16e/	.
16d\JJ 16B\ 16E\	16g#/JJ 16e/	.
8d\L 8B\ 8E\	8g#/L 8e/	.
16d\L 16B\ 16E\	8e/J	.
16d\JJ 16B\ 16E\	.	.
*Xrep	*	*
=36	=36	=36
*^	*	*
!	!LO:N:vis=2	!	!
2AA/	8AA\L	8e/L	.
.	8A\ 8E\ 8C#\	8a/	.
.	8A\ 8E\ 8C#\	8b/	.
.	8A\J 8E\ 8C#\	8cc#/J	.
=37!|:	=37!|:	=37!|:	=37!|:
*>E	*>E	*	*
*rep	*rep	*	*
!	!LO:N:vis=2	!	!
2AA/	8AA\L	8b/L	.
.	8A\ 8E\ 8C#\	16a/L	.
.	.	16cc#/JJ	.
.	8A\ 8E\ 8C#\	4ee/ 4e^/	.
.	8A\J 8E\ 8C#\	.	.
*Xrep	*Xrep	*	*
!!LO:LB:g=original
=38	=38	=38	=38
!	!LO:N:vis=2	!	!
2AA/	8AA\L	8b/L	.
.	8A\ 8E\ 8C#\	16a/L	.
.	.	16cc#/JJ	.
.	8A\ 8E\ 8C#\	4ee\ 4e^\	.
.	8A\J 8E\ 8C#\	.	.
=39:|!	=39:|!	=39:|!	=39:|!
*>F	*>F	*	*
*rep	*rep	*	*
!	!LO:N:vis=2	!	!
2AA/	8AA\L	8e/L	.
.	8A\ 8E\ 8C#\	16f#/L	.
.	.	16g#X/JJ	.
.	8A\ 8E\ 8C#\	16a/LL	.
.	.	16g#/	.
.	8A\J 8E\ 8C#\	16a/	.
.	.	16cc#/JJ	.
*Xrep	*Xrep	*	*
=40	=40	=40	=40
!	!LO:N:vis=2	!	!
2BB/	8BB\L	8b/L	.
.	8A\ 8F#\ 8D#X\	8a/	.
.	8A\ 8F#\ 8D#\	8g#X/	.
.	8A\J 8F#\ 8D#\	8f#/J	.
*v	*v	*	*
=41	=41	=41
!	!	!LO:DY:rj
8G#X\L 8E\	8ee\L	f
16B\L 16G#\ 16E\	16b\L 16g#\ 16e\	.
16B\JJ 16G#\ 16E\	16b\JJ 16g#\ 16e\	.
8B\L 8G#\ 8E\	8b/L 8g#/ 8e/	.
16B\L 16G#\ 16E\	16g#X/L 16e/	.
16B\JJ 16G#\ 16E\	16g#/JJ 16e/	.
=42	=42	=42
8B\L 8G#X\ 8E\	8g#X/L 8e/	.
8A\ 8F#\ 8BB\	8f#/	.
!LO:SIC:v:n=3:s=8GG\	!	!
8G#\J 8E\ 8GG\	8e/J	.
8r	8r	.
!!LO:PB:g=original
=43!|:	=43!|:	=43!|:
*>G	*>G	*
*2\right	*	*
*tremolo	*	*
!	!LO:TX:t=P:problem=skreślone nuty w takcie	!
8B\L 8G#X\	16bb'\LL	.
.	16bb'\J	.
8E\	8bb'\J	.
8B\ 8G#\	16eee'\LL	.
.	16eee'\J	.
8E\J	8eee'\J	.
=44	=44	=44
8c#\L 8A\	16ccc#'\LL 16aa'\ 16ee'\	.
.	16ccc#'\J 16aa'\ 16ee'\	.
8E\	8ccc#'\J 8aa'\ 8ee'\	.
8c#\ 8A\	16eee'\LL 16aa'\ 16ee'\	.
.	16eee'\J 16aa'\ 16ee'\	.
8E\J	8eee'\J 8aa'\ 8ee'\	.
*Xtremolo	*	*
=45	=45	=45
!	!LO:TX:t=P:problem=skreślone nuty w akordzie	!
4e\ 4d\ 4B\ 4G#X\	8ddd\L	.
.	16eee\L	.
.	16ddd\JJ	.
4e\ 4c#\ 4A\	8ccc#\L	.
.	16ddd\L	.
.	16ccc#\JJ	.
=46	=46	=46
*tremolo	*	*
8e\L 8B\ 8G#X\ 8E\	16bb\LL	.
.	16ee\	.
8e\ 8B\ 8G#\ 8E\	16gg#X\	.
.	16bb\JJ	.
8e\J 8B\ 8G#\ 8E\	8eee\ 8ee\	.
*Xtremolo	*	*
8r	8r	.
!!LO:LB:g=original
=47:|!	=47:|!	=47:|!
*>H	*>H	*
!LO:TX:t=P:problem=t. 47-58 puste, uzupełniłem na podstawie 1 strony skanu, gdzie melodia pokrywa się. Jeżeli to błąd, to proszę o usunięcie	!	!
2ryy	8e/L	p
.	8a/	.
.	8b/	.
.	8cc#/J	.
=48	=48	=48
2ryy	8b'\L	.
.	(16a\L	.
.	16cc#\JJ)	.
.	4ee\ 4e^\	.
=49	=49	=49
2ryy	8e/L	.
.	8a/	.
.	8b/	.
.	8cc#/J	.
=50	=50	=50
2ryy	8b/L	.
.	16a/L	.
.	16cc#/JJ	.
!	!LO:TX:t=P:problem=2 takty wykreślone	!
.	4ee/ 4e^/	.
=51	=51	=51
2ryy	8e/L	.
.	16f#/L	.
.	16g#X/JJ	.
.	16a/LL	.
.	16g#/	.
.	16a/	.
.	16b/JJ	.
=52	=52	=52
2ryy	8cc#\L	.
.	8dd\	.
.	8ee\	.
.	8ff#\J	.
!!LO:LB:g=original
=53	=53	=53
!	!	!LO:DY:rj
2ryy	8ee\L	f
.	16dd\L	.
.	16dd\JJ	.
.	8dd\L	.
.	16b\L	.
.	16b\JJ	.
=54	=54	=54
2ryy	8b/L	.
.	16g#X/L	.
.	16g#/JJ	.
.	8g#/L	.
.	8e/J	.
=55!|:	=55!|:	=55!|:
*>I	*>I	*
2ryy	8e/L	.
.	8a/	.
.	8b/	.
.	8cc#/J	.
=56	=56	=56
2ryy	8b'\L	.
.	(16a\L	.
.	16cc#\JJ)	.
.	4ee^\ 4e^\	.
=57:|!	=57:|!	=57:|!
*>J	*>J	*
!	!LO:TX:t=P:problem=brak otwarcia repetycji	!
2ryy	8e/L	.
.	16f#/L	.
.	16g#X/JJ	.
.	16a/LL	.
.	16g#/	.
.	16a/	.
.	16b/JJ	.
=58	=58	=58
2ryy	8cc#\L	.
.	8dd\	.
.	8dd#X\	.
.	8ee\J	.
=59	=59	=59
2ryy	8ff#\L	.
.	16ee\L	.
.	16ee\JJ	.
.	8ee\L	.
.	16cc#\L	.
.	16cc#\JJ	.
=60	=60	=60
2ryy	8cc#\L	.
.	8b\	.
.	8a\J	.
.	8r	.
!!LO:LB:g=original
=61	=61	=61
!LO:TX:t=P:problem=t. 61-68 puste, uzupełniłem na podstawie 1 strony skanu, gdzie melodia pokrywa się. Jeżeli to błąd, to proszę o usunięcie	!	!
2ryy	16bb\LL 16gg\ 16cc#\	.
.	16bb\JJ 16gg\ 16cc#\	.
.	4a/	.
.	8bb\ 8gg\ 8cc#\	.
=62	=62	=62
2ryy	16aa\LL 16ff#\ 16dd\	.
.	16aa\JJ 16ff#\ 16dd\	.
.	4a/	.
.	8aa\ 8ff#\ 8dd\	.
=63	=63	=63
2ryy	16gg\LL 16ee\	.
.	16a\	.
.	16g#X\	.
.	16a\JJ	.
.	16b\LL	.
.	16a\	.
.	16cc#\	.
.	16a\JJ	.
=64	=64	=64
2ryy	16ee\LL	.
.	16dd\	.
.	16cc#\	.
.	16b\JJ	.
.	16a\LL	.
.	16dd\	.
.	16ff#\	.
.	16aa\JJ	.
=65	=65	=65
2ryy	16bb\LL 16gg\ 16cc#\	.
.	16bb\JJ 16gg\ 16cc#\	.
.	4a/	.
.	8bb\ 8gg\ 8cc#\	.
=66	=66	=66
2ryy	16aa\LL 16ff#\ 16dd\	.
.	16aa\JJ 16ff#\ 16dd\	.
.	4a/	.
.	8aa\ 8ff#\ 8dd\	.
!!LO:LB:g=original
=67	=67	=67
2ryy	16gg#X\LL	.
.	16ee\	.
.	16dd#X\	.
.	16ee\JJ	.
.	16ff#\LL	.
.	16ee\	.
.	16gg#\	.
.	16ee\JJ	.
=68	=68	=68
2ryy	16bb\LL	.
.	16aa\	.
.	16gg\	.
.	16ee\JJ	.
.	16a\LL	.
.	16aa\	.
.	16gg#X\	.
.	16ggn\JJ	.
=69:|!	=69:|!	=69:|!
!	!LO:TX:t=P:problem=prawdopodobnie tu powinien być jakiś wklejony fragment, ale nie potrawię rozszyfrować który i ile taktów	!
!	!LO:TX:a:t=15.	!
2ryy	2ryy	.
=70!|:	=70!|:	=70!|:
*>K	*>K	*
*tremolo	*	*
8f#\L 8d\	16eee\LL	.
.	16ddd\	.
8f#\ 8d\	16aa\	.
.	16ff#\JJ	.
8f#\J 8d\	16dd\LL	.
.	16ff#\	.
8r	16aa\	.
.	16ddd\JJ	.
*Xtremolo	*	*
=71	=71	=71
4d\ 4D\	4fff#\ 4ff#\	.
4A#X\ 4AA#X^\	4eee\ 4ccc#\ 4ff#\	.
=72	=72	=72
8B\L 8BB\	8ddd\L 8bb\ 8ff#\	.
8B\J 8BB\	16ccc#\L	.
.	16ddd\JJ	.
!	!LO:TX:t=P:problem=skreślona nuta w akordzie	!
4B-X\ 4BB-X^\	4eee\ 4gg\	.
!!LO:LB:g=original
=73	=73	=73
4F#/ 4D/ 4AA/	(16ddd\LL	.
.	16ccc#\	.
.	16bb\	.
.	16aa\JJ)	.
4G\ 4E\ 4C#\ 4AA\	8aa\L	.
.	8aa\J	.
=74	=74	=74
8A\L 8F#\ 8D\	16bb\LL	.
.	16aa\	.
16A\L 16F#\ 16D\	16ff#\	.
16A\JJ 16F#\ 16D\	16aa\JJ	.
4d\ 4A\ 4F#\ 4D\	16dd\LL	.
.	16ff#\	.
.	16aa\	.
.	16ddd\JJ	.
=75	=75	=75
4d\ 4D\	4fff#\ 4ff#\	.
4A#X\ 4AA#X\	4eee\ 4ccc#\ 4ff#\	.
=76	=76	=76
4B\ 4BB\	8ddd\L 8bb\ 8ff#\	.
.	16ccc#\L	.
.	16ddd\JJ	.
4B-X\ 4BB-X\	4eee\ 4gg\	.
=77	=77	=77
4A\ 4AA\	16ddd\LL	.
.	16ccc#\	.
.	16bb\	.
.	16aa\JJ	.
4A\ 4E\ 4C#\ 4AA\	8aa\L	.
.	8aa\J	.
=78	=78	=78
!LO:TX:t=1ma	!	!
*>K1	*>K1	*
8A\L 8F#\ 8D\	16eee\LL	.
.	16ddd\	.
8A\ 8F#\ 8D\	16aa\	.
.	16ff#\JJ	.
8A\J 8F#\ 8D\	16dd\LL	.
.	16ff#\	.
8r	16aa\	.
.	16ddd\JJ	.
!!LO:LB:g=original
=79:|!	=79:|!	=79:|!
*>L	*>L	*
!	!LO:TX:t=P:problem=brak otwarcia repetycji	!
4A\ 4F#\ 4D\	8ddd\L	.
.	16ccc#\L	.
.	16ddd\JJ	.
*	*rep	*
4cn\ 4A\ 4F#\ 4D\	8ddd\L	.
.	16ccc#\L	.
.	16ddd\JJ	.
*	*Xrep	*
=80	=80	=80
4B\ 4G\ 4D\	8ddd\L	.
.	16ccc#\L	.
.	16ddd\JJ	.
4B-X\ 4G\ 4D\	8eee\L	.
.	16ddd\L	.
.	16eee\JJ	.
=81	=81	=81
4A\ 4F#\ 4D\	8fff#\L	.
.	16ccc#\L	.
.	16ddd\JJ	.
4cn\ 4A\ 4F#\ 4D\	8ddd\L	.
.	16ccc#\L	.
.	16ddd\JJ	.
=82	=82	=82
4B\ 4G\ 4D\	8ddd\L	.
.	16ccc#\L	.
.	16ddd\JJ	.
4B-X\ 4G\ 4D\	8eee\L	.
.	16ddd\L	.
.	16eee\JJ	.
=83	=83	=83
*	*2\right	*
*	*tremolo	*
8A\L 8F#\ 8D\	16fff#\LL	.
.	16aa\	.
8d\ 8D\	16fff#\	.
.	16aa\	.
8d\ 8D\	16fff#\	.
.	16aa\	.
8d\J 8D\	16fff#\	.
.	16aa\JJ	.
*	*Xtremolo	*
=84	=84	=84
8d\L 8D\	8fff#\L 8aa\	.
8G\ 8GG\	8ggg\ 8bb\	.
8G\ 8GG\	8fff#\ 8aa\	.
8G\J 8GG\	8eee\J 8gg\	.
!!LO:PB:g=original
=85	=85	=85
*tremolo	*	*
8A\L 8AA\	8eee\L 8gg\	.
8A\ 8AA\	8ddd\ 8ff#\	.
8A\ 8AA\	8fff#\ 8aa\	.
8A\J 8AA\	8ddd\J 8ff#\	.
=86	=86	=86
8A\L 8E\ 8AA\	8ddd\L 8ff#\	.
8A\ 8E\ 8AA\	8ccc#\ 8ee\	.
8A\ 8E\ 8AA\	8eee\ 8gg\	.
8A\J 8E\ 8AA\	8ccc#\J 8ee\	.
*Xtremolo	*	*
=87:|!|:	=87:|!|:	=87:|!|:
*>M	*>M	*
*^	*	*
8D\	4ryy	8ddd\ 8ff#\	.
4d\ 4D\	.	4fff#\ 4ff#\	.
.	8ryy	.	.
8A#X\	8AA#X\	8ccc#\ 8cc#\	.
*v	*v	*	*
=88	=88	=88
8B\L 8BB\	8ddd\L 8dd\	.
8F#\ 8FF#\	8aa#X\ 8a#X\	.
8G\ 8GG\	8bb\ 8b\	.
8A\J 8AA\	8ddd#X\J 8bb\	.
!!LO:LB:g=original
=89	=89	=89
8G\L 8GG\	8eee\L 8bb\	.
8F#\ 8FF#\	8fff#\J 8bb\	.
8E\ 8EE\	8ggg\L 8bb\	.
8G\J 8GG\	8eee\J 8gg\	.
=90	=90	=90
4A\ 4AA\	8ddd\L 8ff#\	.
.	8fff#\ 8aa\	.
4A/ 4E/ 4AA/	8eee\ 8gg\	.
.	8ccc#\J 8ee\	.
=91:|!	=91:|!	=91:|!
*>N	*>N	*
8A\L 8F#\ 8D\	8ddd\L 8ff#\	.
16A\L 16F#\ 16D\	16ddd\L 16ff#\	.
16A\JJ 16F#\ 16D\	16ddd\JJ 16ff#\	.
8A\L 8F#\ 8D\	8ddd\L 8ff#\	.
8A\J 8E\ 8AA\	8ccc#\J 8ee\	.
=92	=92	=92
*rep	*rep	*
8A\L 8F#\ 8D\	8ddd\L 8ff#\	.
16A\L 16F#\ 16D\	16ddd\L 16ff#\	.
16A\JJ 16F#\ 16D\	16ddd\JJ 16ff#\	.
8A\L 8F#\ 8D\	8ddd\L 8ff#\	.
8A\J 8E\ 8AA\	8ccc#\J 8ee\	.
*Xrep	*Xrep	*
=93	=93	=93
8A\L 8F#\ 8D\	8ddd\L 8ff#\	.
8A\J 8E\ 8AA\	8ccc#\J 8ee\	.
*rep	*rep	*
8A\L 8F#\ 8D\	8ddd\L 8ff#\	.
8A\J 8E\ 8AA\	8ccc#\J 8ee\	.
*Xrep	*Xrep	*
=94	=94	=94
*rep	*rep	*
8A\L 8F#\ 8D\	8ddd\L 8ff#\	.
8A\J 8E\ 8AA\	8ccc#\J 8ee\	.
8A\L 8F#\ 8D\	8ddd\L 8ff#\	.
8A\J 8E\ 8AA\	8ccc#\J 8ee\	.
*Xrep	*Xrep	*
!!LO:LB:g=original
=95	=95	=95
4A\ 4F#\ 4D\	4ddd\ 4ff#\	.
8.r	8.r	.
16d\ 16A\ 16F#\ 16D\	16fff#\ 16ddd\ 16aa\	.
=96	=96	=96
4d\ 4A\ 4F#\ 4D\	4fff#\ 4ddd\ 4aa\	.
8.r	8.r	.
16d\ 16A\ 16F#\ 16D\	16ddd\ 16aa\ 16ff#\ 16dd\	.
=97	=97	=97
4d\ 4A\ 4F#\ 4D\	4ddd\ 4aa\ 4ff#\ 4dd\	.
8.r	8.r	.
16d\ 16A\ 16F#\ 16D\	16dd/ 16a/ 16f#/	.
=98	=98	=98
4d\ 4A\ 4F#\ 4D\	4dd/ 4a/ 4f#/	.
4d\ 4A\ 4F#\ 4D\	4dd/ 4a/ 4f#/	.
=99	=99	=99
2d\ 2A\ 2F#\ 2D;\	2dd/ 2a/ 2f#;/	.
==	==	==
*-	*-	*-
!!!system-decoration: [(s1,s2)]
!!!RDF**kern: > = above
!!!RDF**kern: < = below
!!!EED: Andrzej Borzym
!!!EST: 2021-06-23
!!!AIN: 1 empty 1 forte
!!!ENC: Marcin Jachim
!!!END: 2021-06-13
